dist/img/home/about/5.svg

<svg width="30" height="21" viewBox="0 0 30 21" fill="none" xmlns="http://www.w3.org/2000/svg">
<path d="M15.3915 0H12.3434C12.0197 0 11.7574 0.262383 11.7574 0.585937V19.9963C11.7574 20.3199 12.0197 20.5823 12.3434 20.5823H15.3915C15.715 20.5823 15.9774 20.3199 15.9774 19.9963V0.585937C15.9774 0.262383 15.715 0 15.3915 0ZM14.8055 19.4103H12.9293V1.17187H14.8055V19.4103Z" fill="#E0191C"/>
<path d="M10.0401 0H7.57792C7.25431 0 6.99199 0.262383 6.99199 0.585937V19.9963C6.99199 20.3199 7.25431 20.5823 7.57792 20.5823H10.0401C10.3637 20.5823 10.626 20.3199 10.626 19.9963V0.585937C10.626 0.262383 10.3637 0 10.0401 0ZM9.45415 19.4103H8.16386V1.17187H9.45415V19.4103Z" fill="#E0191C"/>
<path d="M3.0481 0H0.585937C0.262324 0 0 0.262383 0 0.585937V19.9963C0 20.3199 0.262324 20.5823 0.585937 20.5823H3.0481C3.37172 20.5823 3.63404 20.3199 3.63404 19.9963V0.585937C3.63404 0.262383 3.37172 0 3.0481 0ZM2.46217 19.4103H1.17187V1.17187H2.46217V19.4103Z" fill="#E0191C"/>
<path d="M5.27466 0C4.95105 0 4.68873 0.262383 4.68873 0.585937V19.9963C4.68873 20.3199 4.95105 20.5823 5.27466 20.5823C5.59828 20.5823 5.8606 20.3199 5.8606 19.9963V0.585937C5.8606 0.262383 5.59828 0 5.27466 0Z" fill="#E0191C"/>
<path d="M29.8284 19.9656L26.6119 16.7491C27.4574 15.7164 27.9171 14.4346 27.9171 13.0822C27.9171 11.5327 27.3137 10.0759 26.2181 8.98025C25.4894 8.25158 24.601 7.74064 23.6319 7.48013V0.585937C23.6319 0.262383 23.3695 0 23.046 0C22.7224 0 22.46 0.262383 22.46 0.585937V7.29122C22.346 7.2846 22.2313 7.28126 22.1162 7.28126C21.8505 7.28126 21.5876 7.29902 21.3287 7.33394V0.585937C21.3287 0.262383 21.0663 0 20.7428 0H17.6947C17.3711 0 17.1087 0.262383 17.1087 0.585937V10.0753C17.1087 10.098 17.1101 10.1205 17.1126 10.1425C16.5926 11.0241 16.3154 12.0318 16.3154 13.0822C16.3154 14.13 16.5913 15.1353 17.1087 16.0153V19.9963C17.1087 20.3199 17.3711 20.5823 17.6947 20.5823H20.7428C21.0663 20.5823 21.3287 20.3199 21.3287 19.9963V18.8304C21.5876 18.8654 21.8505 18.8831 22.1162 18.8831C22.2313 18.8831 22.346 18.8798 22.46 18.8731V19.9963C22.46 20.3199 22.7224 20.5823 23.046 20.5823C23.3695 20.5823 23.6319 20.3199 23.6319 19.9963V18.6842C24.4158 18.4735 25.1468 18.099 25.7832 17.5779L28.9997 20.7944C29.1141 20.9088 29.264 20.966 29.414 20.966C29.5639 20.966 29.7139 20.9088 29.8283 20.7944C30.0572 20.5655 30.0572 20.1944 29.8284 19.9656ZM20.1569 1.17187V7.61894C19.4723 7.86398 18.8368 8.23851 18.2807 8.72999V1.17187H20.1569ZM20.1569 19.4103H18.2807V17.4343C18.8368 17.9258 19.4723 18.3003 20.1569 18.5453V19.4103ZM18.8431 16.3554C17.9688 15.4811 17.4872 14.3187 17.4872 13.0822C17.4872 11.8457 17.9688 10.6833 18.8431 9.809C19.7174 8.93466 20.8798 8.45314 22.1163 8.45314C23.3528 8.45314 24.5151 8.93466 25.3895 9.809C26.2638 10.6833 26.7453 11.8458 26.7453 13.0822C26.7453 14.3187 26.2638 15.4811 25.3895 16.3554C24.5151 17.2297 23.3527 17.7112 22.1163 17.7112C20.8798 17.7112 19.7174 17.2297 18.8431 16.3554Z" fill="#E0191C"/>
<path d="M24.1309 11.5143C23.8836 11.3054 23.5139 11.3367 23.3052 11.584L21.8236 13.3389L21.3286 12.8471C21.0991 12.619 20.7281 12.6201 20.5 12.8498C20.2719 13.0794 20.2731 13.4504 20.5027 13.6785L21.4485 14.618C21.5585 14.7273 21.707 14.7883 21.8614 14.7883C21.87 14.7883 21.8785 14.7881 21.8871 14.7877C22.0506 14.7806 22.2036 14.7054 22.3091 14.5803L24.2006 12.34C24.4094 12.0927 24.3781 11.723 24.1309 11.5143Z" fill="#E0191C"/>
</svg>

<svg width="30" height="21" viewBox="0 0 30 21" fill="none" xmlns="http://www.w3.org/2000/svg"><path d="M15.392 0h-3.049a.586.586 0 00-.586.586v19.41c0 .324.263.586.586.586h3.049a.586.586 0 00.585-.586V.586A.586.586 0 0015.392 0zm-.586 19.41h-1.877V1.172h1.877V19.41zM10.04 0H7.578a.586.586 0 00-.586.586v19.41c0 .324.262.586.586.586h2.462a.586.586 0 00.586-.586V.586A.586.586 0 0010.04 0zm-.586 19.41h-1.29V1.172h1.29V19.41zM3.048 0H.586A.586.586 0 000 .586v19.41c0 .324.262.586.586.586h2.462a.586.586 0 00.586-.586V.586A.586.586 0 003.048 0zm-.586 19.41h-1.29V1.172h1.29V19.41zM5.275 0a.586.586 0 00-.586.586v19.41a.586.586 0 101.172 0V.586A.586.586 0 005.275 0zm24.553 19.966l-3.216-3.217a5.757 5.757 0 001.305-3.667c0-1.55-.603-3.006-1.699-4.102a5.767 5.767 0 00-2.586-1.5V.586a.586.586 0 00-1.172 0V7.29a5.932 5.932 0 00-1.131.043V.586A.586.586 0 0020.743 0h-3.048a.586.586 0 00-.586.586v9.49c0 .022.001.044.004.066a5.765 5.765 0 00-.798 2.94 5.76 5.76 0 00.794 2.933v3.981c0 .324.262.586.586.586h3.048a.586.586 0 00.586-.586V18.83a5.876 5.876 0 001.131.043v1.123a.586.586 0 001.172 0v-1.312a5.743 5.743 0 002.151-1.106L29 20.794a.584.584 0 00.828 0 .586.586 0 000-.828zM20.157 1.172v6.447c-.685.245-1.32.62-1.876 1.111V1.172h1.876zm0 18.238H18.28v-1.976a5.761 5.761 0 001.876 1.111v.865zm-1.314-3.055a4.599 4.599 0 01-1.356-3.273 4.6 4.6 0 011.356-3.273 4.599 4.599 0 013.273-1.356 4.6 4.6 0 013.274 1.356 4.599 4.599 0 011.355 3.273 4.599 4.599 0 01-1.355 3.273 4.599 4.599 0 01-3.274 1.356 4.599 4.599 0 01-3.273-1.356z" fill="#E0191C"/><path d="M24.13 11.514a.586.586 0 00-.825.07l-1.481 1.755-.495-.492a.586.586 0 10-.826.832l.945.939a.586.586 0 00.861-.038l1.892-2.24a.586.586 0 00-.07-.826z" fill="#E0191C"/></svg>
